Papirus-Adapta/16x16/actions/chronometer-pause.svg

<svg xmlns="http://www.w3.org/2000/svg" width="16" height="16" version="1.1" viewBox="0 0 16 16">
 <defs>
  <style id="current-color-scheme" type="text/css">
   .ColorScheme-Text { color:#414c52; } .ColorScheme-Highlight { color:#00bcd4; }
  </style>
 </defs>
 <path style="fill:currentColor" class="ColorScheme-Text" d="m 7.9999876,1.0000001 c -1.7916312,0 -3.5826624,0.6839244 -4.9495625,2.0508732 -2.73390014,2.7337977 -2.73390014,7.1654557 0,9.8985537 2.7338003,2.734097 7.1657249,2.734097 9.8989249,0 2.7342,-2.733098 2.7342,-7.164856 0,-9.8985537 C 11.58225,1.6839245 9.7915188,1.0000001 7.9999876,1.0000001 Z M 4.9997679,4.0001072 H 6.9999144 V 12.000393 H 4.9997679 Z m 4.0002929,0 H 11.000207 V 12.000393 H 9.0000608 Z"/>
</svg>

<svg xmlns="http://www.w3.org/2000/svg" width="16" height="16" viewBox="0 0 16 16">
 <defs>
  <style id="current-color-scheme" type="text/css">
   .ColorScheme-Text { color:#414c52; } .ColorScheme-Highlight { color:#00bcd4; }
  </style>
 </defs>
 <path style="fill:currentColor" class="ColorScheme-Text" d="m8 1c-1.7915 0-3.5824 0.6839-4.9492 2.0508-2.7337 2.7337-2.7337 7.1652 0 9.8982 2.7336 2.734 7.1652 2.734 9.8982 0 2.734-2.733 2.734-7.1646 0-9.8982-1.367-1.3669-3.1576-2.0508-4.949-2.0508zm-3 3h2v8h-2v-8zm4 0h2v8h-2v-8z"/>
</svg>
